assets/illustrations/multisize/32/vector.svg

<svg id="9085c79e-457e-4d74-af8b-cd8167e94d59" data-name="ICONS" xmlns="http://www.w3.org/2000/svg" xmlns:xlink="http://www.w3.org/1999/xlink" viewBox="0 0 32 32"><defs><linearGradient id="292526b9-731a-4319-afdd-8c920e078abb" x1="3.0842" y1="3.60755" x2="25.96138" y2="30.87151" gradientUnits="userSpaceOnUse"><stop offset="0" stop-color="#fff" stop-opacity="0"/><stop offset="0.86247" stop-color="#5e5e5e" stop-opacity="0.06315"/><stop offset="1" stop-opacity="0.1"/></linearGradient><linearGradient id="d02764f7-5b65-4eff-80e5-86565255ca0d" x1="20.14788" y1="9.10212" x2="24.11437" y2="5.13563" gradientUnits="userSpaceOnUse"><stop offset="0" stop-color="#fff" stop-opacity="0"/><stop offset="0.44604" stop-color="#fff" stop-opacity="0.00799"/><stop offset="0.63551" stop-color="#fff" stop-opacity="0.03616"/><stop offset="0.77636" stop-color="#fff" stop-opacity="0.08493"/><stop offset="0.8924" stop-color="#fff" stop-opacity="0.15385"/><stop offset="0.99328" stop-color="#fff" stop-opacity="0.24291"/><stop offset="1" stop-color="#fff" stop-opacity="0.25"/></linearGradient><linearGradient id="de3182e3-0385-49ed-9521-f35115e99bda" x1="23" y1="10.9375" x2="23" y2="9.05834" gradientUnits="userSpaceOnUse"><stop offset="0" stop-color="#828282" stop-opacity="0"/><stop offset="0.86247" stop-color="#303030" stop-opacity="0.06315"/><stop offset="1" stop-opacity="0.1"/></linearGradient></defs><title>FileTypeIcons_Master_All_NEW</title><polygon points="26 29 6 29 6 3 21 3 26 8 26 29" fill="#fff"/><path d="M21,2H5V30H27V8Zm0,1.5L25.5,8H21ZM26,29H6V3H20V9h6Z" fill="#949494"/><polygon points="16 19 24 22 20 23 19 27 16 19" fill="#0078d7"/><circle cx="13" cy="16" r="2" fill="#0078d7"/><path d="M11,24v2H9V24h2m1-1H8v4h4V23Z" fill="#0078d7"/><path d="M23,12v2H21V12h2m1-1H20v4h4V11Z" fill="#0078d7"/><path d="M15.55762,14.45361A10.89888,10.89888,0,0,1,19,13.19092V12.18066a11.91209,11.91209,0,0,0-4.10938,1.50928A3.00578,3.00578,0,0,1,15.55762,14.45361Z" fill="#c8c8c8"/><path d="M11.45361,18.55762a3.00578,3.00578,0,0,1-.76367-.667A11.91209,11.91209,0,0,0,9.18066,22h1.01026A10.89888,10.89888,0,0,1,11.45361,18.55762Z" fill="#c8c8c8"/><path d="M27,8,21,2H5V30H27Z" fill="url(#292526b9-731a-4319-afdd-8c920e078abb)"/><polygon points="5 2 5 3 20 3 20 9 26 9 26 24.5 27 24.5 27 8 21 2 5 2" fill="url(#d02764f7-5b65-4eff-80e5-86565255ca0d)"/><rect x="20" y="9" width="6" height="2" fill="url(#de3182e3-0385-49ed-9521-f35115e99bda)"/></svg>

<?xml version="1.0" encoding="utf-8"?>
<!-- Generator: Adobe Illustrator 21.1.0, SVG Export Plug-In . SVG Version: 6.00 Build 0)  -->
<svg version="1.1" xmlns="http://www.w3.org/2000/svg" xmlns:xlink="http://www.w3.org/1999/xlink" x="0px" y="0px"
	 viewBox="0 0 32 32" enable-background="new 0 0 32 32" xml:space="preserve">
<g id="TEMPLATE" display="none">
	<g display="inline">
		<path fill="#D0D0D0" d="M32,0v32H0V0H32 M33-1h-1H0h-1v1v32v1h1h32h1v-1V0V-1L33-1z"/>
	</g>
	<g display="inline" opacity="0.1">
		<path fill="#FF3A6D" d="M30,2v28H2V2H30 M32,0H0v32h32V0L32,0z"/>
	</g>
</g>
<g id="ICONS">
	<g>
		<polygon fill="#FFFFFF" points="26,29 6,29 6,3 21,3 26,8 		"/>
		<path fill="#949494" d="M21,2H5v28h22V8L21,2z M21,3.5L25.5,8H21V3.5z M26,29H6V3h14v6h6V29z"/>
	</g>
	<polygon fill="#0078D7" points="16,19 24,22 20,23 19,27 	"/>
	<circle fill="#0078D7" cx="13" cy="16" r="2"/>
	<path fill="#0078D7" d="M11,24v2H9v-2H11 M12,23H8v4h4V23L12,23z"/>
	<path fill="#0078D7" d="M23,12v2h-2v-2H23 M24,11h-4v4h4V11L24,11z"/>
	<path fill="#C8C8C8" d="M15.5576,14.4536c1.0518-0.6025,2.2104-1.0352,3.4424-1.2627v-1.0103
		c-1.4795,0.25-2.8652,0.7695-4.1094,1.5093C15.1543,13.9063,15.3799,14.1611,15.5576,14.4536z"/>
	<path fill="#C8C8C8" d="M11.4536,18.5576c-0.2925-0.1777-0.5474-0.4033-0.7637-0.667C9.9502,19.1348,9.4307,20.5205,9.1807,22
		h1.0103C10.4185,20.7681,10.8511,19.6094,11.4536,18.5576z"/>
	<linearGradient id="SVGID_1_" gradientUnits="userSpaceOnUse" x1="3.0842" y1="3.6075" x2="25.9614" y2="30.8715">
		<stop  offset="0" style="stop-color:#FFFFFF;stop-opacity:0"/>
		<stop  offset="0.2264" style="stop-color:#FCFCFC;stop-opacity:0.0226"/>
		<stop  offset="0.3626" style="stop-color:#F4F4F4;stop-opacity:0.0363"/>
		<stop  offset="0.475" style="stop-color:#E6E6E6;stop-opacity:0.0475"/>
		<stop  offset="0.5744" style="stop-color:#D1D1D1;stop-opacity:0.0574"/>
		<stop  offset="0.6652" style="stop-color:#B7B7B7;stop-opacity:0.0665"/>
		<stop  offset="0.7498" style="stop-color:#979797;stop-opacity:0.075"/>
		<stop  offset="0.8297" style="stop-color:#707070;stop-opacity:0.083"/>
		<stop  offset="0.9057" style="stop-color:#444444;stop-opacity:0.0906"/>
		<stop  offset="0.9761" style="stop-color:#121212;stop-opacity:0.0976"/>
		<stop  offset="1" style="stop-color:#000000;stop-opacity:0.1"/>
	</linearGradient>
	<path fill="url(#SVGID_1_)" d="M27,8l-6-6H5v28h22V8z"/>
	<linearGradient id="SVGID_2_" gradientUnits="userSpaceOnUse" x1="20.1479" y1="9.1021" x2="24.1144" y2="5.1356">
		<stop  offset="0" style="stop-color:#FFFFFF;stop-opacity:0"/>
		<stop  offset="0.8537" style="stop-color:#FFFFFF;stop-opacity:0.2134"/>
		<stop  offset="1" style="stop-color:#FFFFFF;stop-opacity:0.25"/>
	</linearGradient>
	<polygon fill="url(#SVGID_2_)" points="5,2 5,3 20,3 20,9 26,9 26,24.5 27,24.5 27,8 21,2 	"/>
	<linearGradient id="SVGID_3_" gradientUnits="userSpaceOnUse" x1="23" y1="10.9375" x2="23" y2="9.0583">
		<stop  offset="0" style="stop-color:#828282;stop-opacity:0"/>
		<stop  offset="0.2812" style="stop-color:#7F7F7F;stop-opacity:0.0281"/>
		<stop  offset="0.4503" style="stop-color:#777777;stop-opacity:0.045"/>
		<stop  offset="0.5899" style="stop-color:#696969;stop-opacity:0.059"/>
		<stop  offset="0.7133" style="stop-color:#545454;stop-opacity:0.0713"/>
		<stop  offset="0.8259" style="stop-color:#3A3A3A;stop-opacity:0.0826"/>
		<stop  offset="0.9294" style="stop-color:#1A1A1A;stop-opacity:0.0929"/>
		<stop  offset="1" style="stop-color:#000000;stop-opacity:0.1"/>
	</linearGradient>
	<rect x="20" y="9" fill="url(#SVGID_3_)" width="6" height="2"/>
</g>
</svg>
